app/assets/images/heroicons/mini/arrow-turn-up-right.svg

<svg width="20" height="20" viewBox="0 0 20 20" fill="none" xmlns="http://www.w3.org/2000/svg">
<path fill-rule="evenodd" clip-rule="evenodd" d="M3.75 17C4.16421 17 4.5 16.6642 4.5 16.25V8.75H15.4393L13.4697 10.7197C13.1768 11.0126 13.1768 11.4874 13.4697 11.7803C13.7626 12.0732 14.2374 12.0732 14.5303 11.7803L17.7803 8.53033C18.0732 8.23744 18.0732 7.76256 17.7803 7.46967L14.5303 4.21967C14.2374 3.92678 13.7626 3.92678 13.4697 4.21967C13.1768 4.51256 13.1768 4.98744 13.4697 5.28033L15.4393 7.25H3.75C3.33579 7.25 3 7.58579 3 8V16.25C3 16.6642 3.33579 17 3.75 17Z" fill="black"/>
</svg>

<svg xmlns="http://www.w3.org/2000/svg" viewBox="0 0 20 20" fill="currentColor" aria-hidden="true" data-slot="icon">
  <path fill-rule="evenodd" d="M3.75 17a.75.75 0 0 0 .75-.75v-7.5h10.94l-1.97 1.97a.75.75 0 1 0 1.06 1.06l3.25-3.25a.75.75 0 0 0 0-1.06l-3.25-3.25a.75.75 0 1 0-1.06 1.06l1.97 1.97H3.75A.75.75 0 0 0 3 8v8.25c0 .414.336.75.75.75Z" clip-rule="evenodd"/>
</svg>
